svg/fluentui-system-icons/ic_fluent_globe_star_20_regular.svg

<svg width="20" height="20" viewBox="0 0 20 20" fill="none" xmlns="http://www.w3.org/2000/svg">
<path d="M10.2539 17.996C10.1696 17.9987 10.085 18 10 18C5.58172 18 2 14.4183 2 10C2 5.58172 5.58172 2 10 2C14.4183 2 18 5.58172 18 10C18 10.085 17.9987 10.1696 17.996 10.2539C17.6867 9.99891 17.349 9.77706 16.9884 9.5938C16.9464 8.85987 16.7914 8.15622 16.5404 7.5H13.8074C13.8853 7.98985 13.9407 8.50004 13.9716 9.02506C13.6312 9.05751 13.2998 9.12099 12.9803 9.21263C12.9503 8.61484 12.8865 8.04103 12.7938 7.5H7.20617C7.07345 8.27472 7 9.11669 7 10C7 10.8833 7.07345 11.7253 7.20617 12.5H9.37494C9.25003 12.8199 9.15419 13.1543 9.09069 13.5H7.41936C7.57172 14.0902 7.76073 14.6258 7.97822 15.0919C8.4582 16.1204 9.02035 16.7057 9.55629 16.9132C9.7465 17.3021 9.98125 17.6653 10.2539 17.996ZM12.0218 4.90814C11.4068 3.59025 10.6568 3 10 3C9.34315 3 8.59323 3.59025 7.97822 4.90814C7.76073 5.37419 7.57172 5.90978 7.41936 6.5H12.5806C12.4283 5.90978 12.2393 5.37419 12.0218 4.90814ZM6.38931 6.5C6.56498 5.75696 6.79564 5.07753 7.07203 4.48526C7.25828 4.08617 7.47297 3.71222 7.71442 3.38163C6.11182 3.93497 4.77295 5.05399 3.93648 6.5H6.38931ZM6 10C6 9.12934 6.06723 8.28832 6.19265 7.5H3.45963C3.16268 8.2764 3 9.1192 3 10C3 10.8808 3.16268 11.7236 3.45963 12.5H6.19265C6.06723 11.7117 6 10.8707 6 10ZM7.07203 15.5147C6.79564 14.9225 6.56498 14.243 6.38931 13.5H3.93648C4.77295 14.946 6.11182 16.065 7.71442 16.6184C7.47297 16.2878 7.25828 15.9138 7.07203 15.5147ZM16.0635 6.5C15.2271 5.05399 13.8882 3.93497 12.2856 3.38163C12.527 3.71222 12.7417 4.08617 12.928 4.48526C13.2044 5.07753 13.435 5.75696 13.6107 6.5H16.0635ZM14.5 19C16.9853 19 19 16.9853 19 14.5C19 12.0147 16.9853 10 14.5 10C12.0147 10 10 12.0147 10 14.5C10 16.9853 12.0147 19 14.5 19ZM15.4535 13.3923H16.9985C17.4834 13.3923 17.685 14.0391 17.2927 14.3362L16.0428 15.2829L16.5202 16.8146C16.67 17.2953 16.1422 17.6951 15.75 17.398L14.5 16.4513L13.25 17.398C12.8578 17.6951 12.33 17.2953 12.4798 16.8146L12.9572 15.2829L11.7073 14.3362C11.315 14.0391 11.5166 13.3923 12.0015 13.3923H13.5465L14.024 11.8605C14.1738 11.3798 14.8262 11.3798 14.976 11.8605L15.4535 13.3923Z" fill="#212121"/>
</svg>

<svg xmlns="http://www.w3.org/2000/svg" width="20" height="20"><path d="M10.254 17.996a8 8 0 1 1 7.742-7.742 5.506 5.506 0 0 0-1.008-.66A6.967 6.967 0 0 0 16.54 7.5h-2.733c.078.49.134 1 .165 1.525a5.48 5.48 0 0 0-.992.188 14.453 14.453 0 0 0-.186-1.713H7.206A14.87 14.87 0 0 0 7 10c0 .883.073 1.725.206 2.5h2.169a5.46 5.46 0 0 0-.284 1H7.419c.153.59.342 1.126.56 1.592.48 1.028 1.041 1.614 1.577 1.821.19.39.425.752.698 1.083Zm1.768-13.088C11.407 3.59 10.657 3 10 3c-.657 0-1.407.59-2.022 1.908A9.251 9.251 0 0 0 7.42 6.5h5.162a9.246 9.246 0 0 0-.56-1.592ZM6.389 6.5c.176-.743.407-1.422.683-2.015.186-.399.401-.773.642-1.103A7.022 7.022 0 0 0 3.936 6.5H6.39ZM6 10c0-.87.067-1.712.193-2.5H3.46A6.984 6.984 0 0 0 3 10c0 .88.163 1.724.46 2.5h2.733A15.969 15.969 0 0 1 6 10Zm1.072 5.515a10.501 10.501 0 0 1-.683-2.015H3.936a7.022 7.022 0 0 0 3.778 3.118 6.63 6.63 0 0 1-.642-1.103ZM16.064 6.5a7.021 7.021 0 0 0-3.778-3.118c.241.33.456.704.642 1.103.276.593.507 1.272.683 2.015h2.453ZM14.5 19a4.5 4.5 0 1 0 0-9 4.5 4.5 0 0 0 0 9Zm.954-5.608h1.544c.485 0 .687.647.295.944l-1.25.947.477 1.532c.15.48-.378.88-.77.583l-1.25-.947-1.25.947c-.392.297-.92-.103-.77-.583l.477-1.532-1.25-.947c-.392-.297-.19-.944.294-.944h1.546l.477-1.531a.494.494 0 0 1 .952 0l.477 1.531Z"/></svg>
